X: 18030
T: Hull's
R: reel
M: 4/4
K: Dmajor
|:ADDB AAFB|ADDA B2 Bd|ADDB AAFA|BAB/c/d efdB|
ADDB AAFB|ADDA BABd|efed Bdfe|1 dBBA B2 z B:|2 dBBA B2 ze||
|:f ~A3 ffed|e ~B3 e3 f|eBBA BBAB|d~A3 ABde|
f ~A3 f2 ed|e~B3 e3 d|efed Bdfe|1 dBBA B2 z e:|2 dBBA B2 z2||

